X:1
T:Title
%%score ( 1 2 ) { 3 | 4 }
L:1/8
Q:1/4=77
M:4/4
K:Ab
V:1 treble nm="Grand Piano, Soprano"
V:2 treble 
V:3 treble nm="Choir Pad, Song of Christmas"
V:4 bass 
V:1
 [Ec][Ee][GB][Gc] [FA][FB] E2 | z2 .c.=A z4 | [EA][Ec][EG][EB] [CF][DA] E2 | %3
w: By~Pluma~M.~Brown,~1896 * * * * * *|||
 [DF][Fd] c/B/=A/B/ [Ge]>[Ge] [E_A]2 | [Fd]>[Fd] [Fd]>[Fd] [Fd]>[Ec] [Ec]2 | %5
w: ||
 [Ac][GB][_G=A][=GB] [Be]2 [Ge]2 | A6 z2 | [=Ec]>[EG] [FA][FB] [Ec]>[EG] [FA]2 | %8
w: |||
 [=Ec]>[Ec] [G=d]/[Gd]/[G=e] [Ff]>F F2 | [AB]>[AB] [Ac][A=d] [Ge]>[GB] [GB]2 | %10
w: ||
 [AB]>[AB] [Ac][A=d] [Ge]2 [Ad]2 | [Ge]6 z2 | [Gd][Gd] d/f/e/d/ [Ec][EB] [EA]2 | %13
w: |||
 [DF][DF] D/-[Dd]/c/B/ [Ae]2 [Ge]2 | A6 z2 |] %15
w: ||
V:2
 x8 | [DF][Dd] F/-[FB]/F/-[FB]/ [Ge]>[Ed] [Ec]2 | x8 | z2 FF z4 | x8 | x8 | x8 | x8 | x8 | x8 | %10
 x8 | x8 | z2 GE z4 | z2 .FF z4 | x8 |] %15
V:3
 A,A,DD C[K:bass]B, A,2 | A,A,B,B, B,>B,[K:treble] C2 | CCB,G,[K:bass] A,A, A,2 | %3
 A,A,B,B,[K:treble] D>D C2 | A,>A,[K:bass] A,>A, A,>A, A,2 | A,B,[K:treble]CD E2 D2 | C6 z2 | %7
 C>C CC C>C C2 | C>C[K:bass] _C/C/B, A,>A, A,2 | =D>D CB, B,>[K:bass]B, B,2 | =D>D CB, B,2 B,2 | %11
 B,6 z2 | B,B,B,B, C[K:treble]D C2 | A,A,A,B, C2 D2 | C6 z2 |] %15
V:4
 z C,E,E, F,D, C,2 | D,D,D,D, E,>E, A,2 | A,A,E,E, F,F, C,2 | D,D,D,D, E,>E, A,2 | %4
 D,>D, D,>D, D,>A,, A,,2 | E,E,E,E, E,2 E,2 | A,6 z2 | C,>C, F,F, C,>C, F,2 | %8
 C,>C, C,/C,/C, F,>F, F,2 | B,,>B,, B,,B,, E,>E, E,2 | B,,>B,, B,,B,, B,,2 B,,2 | E,6 z2 | %12
 E,E,E,E, A,A, A,2 | D,D,D,D, E,2 E,2 | A,6 z2 |] %15

